assets/svg/compass.svg

<svg fill="none" height="24" viewBox="0 0 24 24" width="24" xmlns="http://www.w3.org/2000/svg"><path clip-rule="evenodd" d="m21.8463 4.28076-8.309 17.06414c-.2749.5599-.9374.8149-1.5073.5499-.3374-.1574-.5549-.4624-.6324-.7999l-1.1174-6.3547c-.09-.505-.4749-.9174-1.00483-1.0174l-6.3342-1.1175c-.34496-.0575-.65992-.28-.8274-.6199-.27496-.56-.03249-1.235.52244-1.5175l17.07029-8.31454c.7924-.37248 1.7448-.045 2.1323.74996.2199.45248.2074.94745.0075 1.37742z" fill="#222" fill-rule="evenodd"/></svg>

<svg width="24" height="24" viewBox="0 0 24 24" fill="none" xmlns="http://www.w3.org/2000/svg">
<path fill-rule="evenodd" clip-rule="evenodd" d="M21.8463 4.28076L13.5373 21.3449C13.2624 21.9048 12.5999 22.1598 12.03 21.8948C11.6926 21.7374 11.4751 21.4324 11.3976 21.0949L10.2802 14.7402C10.1902 14.2352 9.8053 13.8228 9.27537 13.7228L2.94117 12.6053C2.59621 12.5478 2.28125 12.3253 2.11377 11.9854C1.83881 11.4254 2.08128 10.7504 2.63621 10.4679L19.7065 2.15336C20.4989 1.78088 21.4513 2.10836 21.8388 2.90332C22.0587 3.3558 22.0462 3.85077 21.8463 4.28074V4.28076Z" fill="#222222"/>
</svg>
